images/Union.svg

<svg width="73" height="36" viewBox="0 0 73 36" fill="none" xmlns="http://www.w3.org/2000/svg">
<path fill-rule="evenodd" clip-rule="evenodd" d="M50.9905 3.5979V0H46.8019V3.5979H50.9905ZM36.8272 17.863C38.2657 17.863 39.5474 17.3755 40.5523 16.5326L40.9534 17.4466H44.1012V0.693604H39.8959V5.58935C39.0108 5.0414 37.9675 4.73483 36.8272 4.73483C33.0377 4.73483 30.3384 7.46728 30.3384 11.2924C30.3384 12.9099 30.821 14.3343 31.6647 15.4397V31.457H35.9185V24.8843C35.9185 23.3048 36.721 22.3944 38.0081 22.3944C39.1182 22.3944 39.6186 23.1181 39.6186 24.5376V31.457H43.8723V24.0451C43.8723 20.8547 42.0503 18.7846 39.2151 18.7846C37.9843 18.7846 36.8278 19.2287 35.9185 19.9585V17.8086C36.2135 17.8446 36.5167 17.863 36.8272 17.863ZM37.3962 14.1092C35.8029 14.1092 34.6317 12.8998 34.6317 11.2927C34.6317 9.6853 35.8029 8.47589 37.3962 8.47589C38.9896 8.47589 40.1607 9.6853 40.1607 11.2927C40.1607 12.8998 38.9896 14.1092 37.3962 14.1092ZM10.202 16.5631C9.19069 17.3796 7.90998 17.85 6.47558 17.85C2.69932 17.85 0 15.1044 0 11.2792C0 7.46728 2.69932 4.75421 6.47558 4.75421C7.9301 4.75421 9.22934 5.23834 10.2491 6.0769L10.6843 5.12506L13.8548 5.12528V17.4336H10.5663L10.202 16.5631ZM4.27985 11.289C4.27985 12.8964 5.45102 14.0962 7.04435 14.0962C8.63769 14.0962 9.80886 12.8964 9.80886 11.289C9.80886 9.69141 8.63769 8.49158 7.04435 8.49158C5.44141 8.49158 4.27985 9.69141 4.27985 11.289ZM22.4664 17.85C26.1143 17.85 28.544 15.6067 28.544 12.1626V5.13825H24.2902V11.9782C24.2902 13.2645 23.6028 14.0415 22.4664 14.0415C21.3297 14.0415 20.629 13.2775 20.629 11.9782V5.13824H16.3752V12.1626C16.3752 15.6067 18.8182 17.85 22.4664 17.85ZM51.0232 5.13806V17.4464H50.637V17.6083H46.4484V14.0104H46.7694V5.13806H51.0232ZM69.6629 8.27654C70.1256 8.27654 70.5162 8.12145 70.8348 7.81127C71.1534 7.50109 71.3127 7.11009 71.3127 6.63827C71.3127 6.17519 71.1534 5.78637 70.8348 5.47182C70.5162 5.15727 70.1256 5 69.6629 5C69.2003 5 68.8075 5.15727 68.4845 5.47182C68.1615 5.78637 68 6.17519 68 6.63827C68 7.11009 68.1615 7.50109 68.4845 7.81127C68.8075 8.12145 69.2003 8.27654 69.6629 8.27654ZM59.9036 17.85C63.917 17.85 66.8276 15.0948 66.8276 11.2924C66.8276 7.47706 63.917 4.73505 59.9036 4.73505C55.8771 4.73505 52.9795 7.47706 52.9795 11.2924C52.9795 12.5692 53.3062 13.728 53.8927 14.704H53.3452V31.457H57.599V17.5216C58.3104 17.7357 59.0836 17.85 59.9036 17.85ZM59.9035 14.0417C58.3525 14.0415 57.2401 12.9198 57.2401 11.2926C57.2401 9.66541 58.3525 8.54376 59.9035 8.54376C61.4546 8.54376 62.567 9.67521 62.567 11.2928C62.567 12.9201 61.4546 14.0417 59.9035 14.0417ZM20.227 31.0561V35.9017H16.0217V19.1487H18.9145L19.4474 20.1265C20.463 19.2512 21.7701 18.7452 23.2376 18.7452C27.0139 18.7452 29.7132 21.4681 29.7132 25.3028C29.7132 29.1376 27.0139 31.8734 23.2376 31.8734C22.1209 31.8734 21.0986 31.5808 20.227 31.0561ZM19.9041 25.3026C19.9041 26.9195 21.0753 28.1193 22.6686 28.1193C24.2521 28.1193 25.4331 26.9195 25.4331 25.3026C25.4331 23.6856 24.2619 22.4858 22.6686 22.4858C21.0753 22.4858 19.9041 23.6856 19.9041 25.3026ZM50.6697 19.1484V31.4567H46.4159V19.1484H50.6697ZM66.2632 31.8606C69.3616 31.8606 71.8599 30.1055 72.729 27.2965H68.496C68.0871 28.017 67.2569 28.4508 66.2632 28.4508C64.9201 28.4508 64.0204 27.7207 63.7421 26.3089H72.9122C72.9675 25.9282 73 25.5574 73 25.1865C73.0002 21.5759 70.244 18.7454 66.2632 18.7454C62.387 18.7454 59.5553 21.52 59.5553 25.2934C59.5553 29.0536 62.4099 31.8606 66.2632 31.8606ZM68.8096 23.9612H63.8171C64.1613 22.7386 65.0232 22.0673 66.263 22.0673C67.5467 22.0673 68.4363 22.7311 68.8096 23.9612Z" fill="#ADADAD"/>
</svg>

<svg xmlns="http://www.w3.org/2000/svg" width="73" height="36" fill="none"><path fill="#ADADAD" fill-rule="evenodd" d="M50.99 3.598V0h-4.188v3.598h4.188ZM36.828 17.863c1.439 0 2.72-.488 3.725-1.33l.401.914h3.148V.694h-4.205v4.895a5.78 5.78 0 0 0-3.069-.854c-3.79 0-6.489 2.732-6.489 6.557 0 1.618.483 3.042 1.327 4.148v16.017h4.254v-6.573c0-1.58.802-2.49 2.09-2.49 1.11 0 1.61.724 1.61 2.144v6.919h4.253v-7.412c0-3.19-1.822-5.26-4.657-5.26a5.28 5.28 0 0 0-3.297 1.174v-2.15a7.5 7.5 0 0 0 .91.054Zm.57-3.754c-1.594 0-2.765-1.21-2.765-2.816 0-1.608 1.17-2.817 2.764-2.817 1.594 0 2.765 1.21 2.765 2.817 0 1.607-1.171 2.816-2.765 2.816Zm-27.195 2.454c-1.011.817-2.292 1.287-3.726 1.287C2.699 17.85 0 15.104 0 11.28c0-3.813 2.7-6.526 6.476-6.526 1.454 0 2.753.484 3.773 1.323l.435-.952h3.17v12.309h-3.288l-.364-.87ZM4.28 11.29c0 1.607 1.171 2.807 2.764 2.807 1.594 0 2.765-1.2 2.765-2.807 0-1.598-1.171-2.797-2.765-2.797-1.603 0-2.764 1.2-2.764 2.797Zm18.186 6.561c3.648 0 6.078-2.243 6.078-5.687V5.138H24.29v6.84c0 1.287-.687 2.063-1.824 2.063-1.136 0-1.837-.764-1.837-2.063v-6.84h-4.254v7.025c0 3.444 2.443 5.687 6.091 5.687ZM51.023 5.138v12.308h-.386v.162h-4.189V14.01h.321V5.138h4.254Zm18.64 3.139c.463 0 .853-.156 1.172-.466.318-.31.478-.7.478-1.173 0-.463-.16-.852-.478-1.166A1.604 1.604 0 0 0 69.663 5c-.463 0-.855.157-1.178.472A1.563 1.563 0 0 0 68 6.638c0 .472.162.863.484 1.173.324.31.716.466 1.179.466Zm-9.76 9.573c4.014 0 6.925-2.755 6.925-6.558 0-3.815-2.911-6.557-6.924-6.557-4.027 0-6.925 2.742-6.925 6.557 0 1.277.327 2.436.914 3.412h-.548v16.753H57.6V17.522a7.985 7.985 0 0 0 2.305.328Zm0-3.808c-1.55 0-2.663-1.122-2.663-2.75 0-1.627 1.112-2.748 2.663-2.748 1.552 0 2.664 1.131 2.664 2.749 0 1.627-1.112 2.749-2.663 2.749ZM20.227 31.056v4.846h-4.205V19.149h2.893l.532.977c1.016-.875 2.323-1.38 3.79-1.38 3.777 0 6.476 2.722 6.476 6.557 0 3.835-2.7 6.57-6.475 6.57a5.79 5.79 0 0 1-3.011-.817Zm-.323-5.753c0 1.616 1.171 2.816 2.765 2.816 1.583 0 2.764-1.2 2.764-2.816 0-1.617-1.171-2.817-2.764-2.817-1.594 0-2.765 1.2-2.765 2.817Zm30.766-6.155v12.309h-4.254V19.148h4.254Zm15.593 12.713c3.099 0 5.597-1.756 6.466-4.564h-4.233c-.409.72-1.24 1.154-2.233 1.154-1.343 0-2.243-.73-2.52-2.142h9.17A7.78 7.78 0 0 0 73 25.186c0-3.61-2.756-6.44-6.737-6.44-3.876 0-6.708 2.774-6.708 6.547 0 3.76 2.855 6.568 6.708 6.568Zm2.547-7.9h-4.993c.344-1.222 1.206-1.894 2.446-1.894 1.284 0 2.173.664 2.547 1.894Z" clip-rule="evenodd"/></svg>
